cps 0.17647

d1 $ sound $ brak "808bd:3 ~  808cp ~  808bd:4  ~ 808cp   [808bd]*4"

d1 $ smash 4 [2,2, 2, 2] $ sound  "808bd:3 ~  808cp   [808bd:2]*4   808bd:4  ~ 808cp   [808bd]*4"
d1 $ sound  "[808bd:3 ~  808cp   [808bd:2]   808bd:4  ~ 808cp   [808bd*2 808bd]?]*2"


d1 $ stut 4 1.1 0.1 $ sound "808bd"

d2 $ sound "everyoneneeds" 
d2 $ smash 2 [1] $ sound "everyoneneeds"

d1 $ silence
d2 $ silence
