cps 0.5


d1 $ striate 1 $  sound "[abedrum:6]*3 [abedrum:5]*6 [abedrum:4 abedrum:3] abedrum:5 "

d1 $ striate 1 $  sound "[abedrum:4 abedrum:3] [abedrum:5 [abedrum:6]*2, [abedrum:5]*3]" 
|+| vowel "a o i"
|+| crush "4 6"

d2 $ striate 4 $ sound "abeflute:1" 
|+| accelerate "-3" 

d3 $ sound "abenote:1 [abenote:6 abenote:4]*2"

d3 $ sound "abenote:1 [abenote:6 abenote:4]*2"

d1 $ silence
d2 $ silence
d3 $ silence
